X: 18
T:Tam Lin var 2
C:Norman Chalmers
R:reel
N:start very slowly and accelerate on each repeat
N:from The Scottish Music List, Vol2 No 87
Z:Jack Campin 1998
M:4/4
L:1/8
K:Bmin
F2BF dFBF|G2BG dGBG|A2cA eAcA|dfad cdcB|
F2BF dFBF|G2BG dGBG|A2cA eAcA|dcBA B2z2:|
ze2B G2E2|ze2B G2E2|d2cd BdAd|GdFd EdD2|
ze2B G2E2|ze2B G2E2|B3c  d3e |fgaf gfed:|
